X: 22684
T: Lakes Of Sligo, The
R: polka
M: 2/4
K: Dmajor
|:FA AB/c/|d>e dA|BA B/c/d|e>d ef|
FA AB/c/|de fg//f//e/|dB Af|1 ef/e/ d>A:|2 ef/e/ d>e||
|:fa/f/ d>e|f/e/f/g/ ag/f/|gb e>f|g/f/g/a/ ba/g/|
fa ef/e/|de fg//f//e/|dB Af|1 ef/e/ d>e:|2 ef/e/ d>A||

